X: 518
T: Kit White's #2
T: Donal Don
T: MacGregor's March
T: Maurice O'Keeffe's (5)
T: Rob Roy's March
S: https://lesters-tune-a-day.blogspot.com/2019/10/tune-518-kit-whites-no-2.html 2019-10-12
M: 4/4
L: 1/8
K: D
|:\
A2 AB A2 AB | A2 d2 d2 c2 | B2 Bc B2 Bc | B2 e2 B2 cB |\
A2 AB A2 AB | A2 d2 d2 c2 | c2 ec B2 c2 | d4 d4 :|
|:\
f3 e f3 e | f2 e2 B4 | e3 f e3 f | e2 dB A4 |\
f3 e f3 e | f2 e2 B3 d | c2 ec B2 c2 | d4 d4 :|
